chrome/img/svgs/settings.svg

<?xml version="1.0" encoding="UTF-8"?>
<svg width="156px" height="99px" viewBox="0 0 156 99" version="1.1" xmlns="http://www.w3.org/2000/svg" xmlns:xlink="http://www.w3.org/1999/xlink">
    <!-- Generator: Sketch 42 (36781) - http://www.bohemiancoding.com/sketch -->
    <title>Group 4</title>
    <desc>Created with Sketch.</desc>
    <defs></defs>
    <g id="Icons" stroke="none" stroke-width="1" fill="none" fill-rule="evenodd">
        <g id="Group-4" transform="translate(-10.000000, 2.000000)" stroke="#979797">
            <g id="Group-3" opacity="0.5" transform="translate(43.500000, 49.500000) rotate(-28.000000) translate(-43.500000, -49.500000) translate(12.000000, 18.000000)" stroke-width="2">
                <path d="M62.5633503,23.504902 C63.3158777,25.1972549 62.5633503,26.8896078 60.6820316,27.6417647 L57.8600536,28.77 C58.0481854,31.0264706 58.0481854,33.094902 57.6719217,35.3513725 L60.4938997,36.6676471 C62.1870865,37.4198039 62.939614,39.3001961 62.1870865,40.8045098 L58.9888448,48.1380392 C58.4244492,49.2662745 57.295658,50.0184314 56.1668668,50.0184314 C55.6024711,50.0184314 55.2262074,50.0184314 54.8499437,49.8303922 L52.0279657,48.5141176 C50.7110426,50.2064706 49.2059876,51.7107843 47.3246689,53.0270588 L48.641592,55.6596078 C49.3941195,57.1639216 48.641592,59.0443137 46.9484052,59.6084314 L39.4231305,62.6170588 C39.0468668,62.805098 38.670603,62.805098 38.2943393,62.805098 C37.1655481,62.805098 36.0367569,62.0529412 35.4723613,60.7366667 L34.34357,57.9160784 C33.4029107,58.1041176 32.4622514,58.1041176 31.521592,58.1041176 C30.2046689,58.1041176 29.0758777,58.1041176 27.7589547,57.9160784 L26.4420316,60.7366667 C25.877636,61.864902 24.7488448,62.6170588 23.6200536,62.6170588 C23.055658,62.6170588 22.6793942,62.6170588 22.3031305,62.4290196 L14.9659876,59.2323529 C13.2728008,58.4801961 12.5202733,56.5998039 13.2728008,55.0954902 L14.5897239,52.274902 C12.8965371,50.9586275 11.3914821,49.4543137 10.0745591,47.5739216 L7.25258104,48.7021569 C6.8763173,48.8901961 6.50005357,48.8901961 6.12378983,48.8901961 C4.99499862,48.8901961 3.86620741,48.1380392 3.30181181,46.8217647 L0.291701917,39.3001961 C-0.460825556,37.7958824 0.291701917,35.9154902 1.98488873,35.3513725 L4.80686675,34.2231373 C4.61873488,31.9666667 4.61873488,29.8982353 4.99499862,27.6417647 L2.1730206,26.3254902 C0.479833785,25.5733333 -0.272693688,23.6929412 0.479833785,22.1886275 L3.67807554,14.855098 C4.24247115,13.7268627 5.37126236,12.9747059 6.50005357,12.9747059 C7.06444917,12.9747059 7.44071291,12.9747059 7.81697664,13.1627451 L10.6389547,14.4790196 C11.9558777,12.7866667 13.4609327,11.2823529 15.3422514,9.96607843 L14.2134602,7.1454902 C13.4609327,5.64117647 14.2134602,3.76078431 15.906647,3.19666667 L23.4319217,0.188039216 C23.8081854,0 24.1844492,0 24.5607129,0 C25.6895041,0 26.8182953,0.752156863 27.3826909,2.06843137 L28.5114821,4.88901961 C29.4521415,4.70098039 30.3928008,4.70098039 31.3334602,4.70098039 C32.6503832,4.70098039 33.7791744,4.70098039 35.0960975,4.88901961 L36.4130206,2.06843137 C36.9774162,0.940196078 38.1062074,0.188039216 39.2349986,0.188039216 C39.6112624,0.188039216 39.9875261,0.376078431 40.3637898,0.376078431 L47.7009327,3.5727451 C49.3941195,4.32490196 50.146647,6.20529412 49.3941195,7.70960784 L48.2653283,10.7182353 C49.9585151,12.0345098 51.46357,13.5388235 52.7804931,15.4192157 L55.6024711,14.1029412 C55.9787349,13.914902 56.3549986,13.914902 56.7312624,13.914902 C57.8600536,13.914902 58.9888448,14.6670588 59.5532404,15.9833333 L62.5633503,23.504902 Z" id="Shape" fill="#F5F5F5" fill-rule="nonzero"></path>
                <circle id="Oval" fill="#FFFFFF" cx="32.5" cy="30.5" r="13.5"></circle>
            </g>
            <g id="Group-2" transform="translate(73.000000, 0.000000)">
                <path d="M90.0510009,29.5311111 C91.273858,31.6622222 90.6624294,34.4022222 88.5224294,36.0766667 L83.0195723,39.8822222 C83.4781437,42.3177778 83.783858,44.9055556 83.783858,47.4933333 C83.783858,50.0811111 83.4781437,52.6688889 83.0195723,55.1044444 L88.6752866,58.7577778 C90.6624294,60.1277778 91.273858,63.02 90.0510009,65.1511111 L83.3252866,76.72 C82.4081437,78.2422222 80.7267152,79.1555556 79.0452866,79.1555556 C78.433858,79.1555556 77.6695723,79.0033333 77.0581437,78.6988889 L70.943858,75.9588889 C67.1224294,79.3077778 62.5367152,81.8955556 57.6452866,83.57 L57.033858,90.2677778 C56.7281437,92.7033333 54.7410009,94.6822222 52.1424294,94.6822222 L38.6910009,94.6822222 C36.0924294,94.6822222 33.9524294,92.8555556 33.7995723,90.2677778 L33.1881437,83.57 C28.2967152,81.8955556 23.7110009,79.3077778 19.8895723,75.9588889 L13.7752866,78.8511111 C13.163858,79.1555556 12.5524294,79.3077778 11.7881437,79.3077778 C10.1067152,79.3077778 8.42528659,78.3944444 7.50814374,76.8722222 L0.78242945,65.3033333 C-0.593284836,63.1722222 0.0181437357,60.4322222 2.15814374,58.91 L7.50814374,54.9522222 C7.04957231,52.5166667 6.74385802,49.9288889 6.74385802,47.3411111 C6.74385802,44.7533333 7.04957231,42.1655556 7.50814374,39.73 L2.00528659,35.9244444 C0.0181437357,34.5544444 -0.593284836,31.6622222 0.629572307,29.5311111 L7.35528659,17.9622222 C8.27242945,16.44 9.95385802,15.5266667 11.6352866,15.5266667 C12.3995723,15.5266667 13.0110009,15.5266667 13.7752866,15.8311111 L19.8895723,18.7233333 C23.7110009,15.3744444 28.2967152,12.7866667 33.1881437,11.1122222 L33.7995723,4.41444444 C34.1052866,1.97888889 36.0924294,0 38.6910009,0 L52.1424294,0 C54.7410009,0 56.8810009,1.82666667 57.033858,4.41444444 L57.6452866,11.1122222 C62.5367152,12.7866667 67.1224294,15.3744444 70.943858,18.7233333 L77.0581437,15.9833333 C77.6695723,15.6788889 78.2810009,15.5266667 79.0452866,15.5266667 C80.7267152,15.5266667 82.4081437,16.44 83.3252866,17.9622222 L90.0510009,29.5311111 Z" id="Shape" stroke-width="3" fill="#F5F5F5" fill-rule="nonzero"></path>
                <ellipse id="Oval" stroke-width="4" fill="#FFFFFF" cx="45" cy="47" rx="19" ry="19"></ellipse>
            </g>
        </g>
    </g>
</svg>

<svg width="156" height="99" viewBox="0 0 156 99" xmlns="http://www.w3.org/2000/svg"><title>Group 4</title><g stroke="#979797" fill="none" fill-rule="evenodd"><g opacity=".5" transform="rotate(-28 72.608 37.49)" stroke-width="2"><path d="M62.563 23.505c.753 1.692 0 3.385-1.881 4.137L57.86 28.77c.188 2.256.188 4.325-.188 6.581l2.822 1.317c1.693.752 2.446 2.632 1.693 4.137l-3.198 7.333c-.565 1.128-1.693 1.88-2.822 1.88-.565 0-.94 0-1.317-.188l-2.822-1.316c-1.317 1.692-2.822 3.197-4.703 4.513l1.317 2.633c.752 1.504 0 3.384-1.694 3.948l-7.525 3.01c-.376.187-.752.187-1.129.187-1.128 0-2.257-.752-2.822-2.068l-1.128-2.82c-.941.187-1.882.187-2.822.187-1.317 0-2.446 0-3.763-.188l-1.317 2.82c-.564 1.129-1.693 1.881-2.822 1.881-.564 0-.94 0-1.317-.188l-7.337-3.197c-1.693-.752-2.446-2.632-1.693-4.137l1.317-2.82c-1.693-1.316-3.199-2.82-4.515-4.701l-2.822 1.128c-.377.188-.753.188-1.13.188-1.128 0-2.257-.752-2.821-2.068L.292 39.3c-.753-1.504 0-3.385 1.693-3.949l2.822-1.128c-.188-2.256-.188-4.325.188-6.581l-2.822-1.317C.48 25.573-.273 23.693.48 22.19l3.198-7.334c.564-1.128 1.693-1.88 2.822-1.88.564 0 .94 0 1.317.188l2.822 1.316c1.317-1.692 2.822-3.197 4.703-4.513l-1.129-2.82c-.752-1.505 0-3.385 1.694-3.95L23.432.189C23.808 0 24.184 0 24.56 0c1.129 0 2.257.752 2.822 2.068L28.51 4.89c.941-.188 1.882-.188 2.822-.188 1.317 0 2.446 0 3.763.188l1.317-2.82C36.977.94 38.106.187 39.235.187c.376 0 .753.188 1.129.188L47.7 3.573c1.693.752 2.446 2.632 1.693 4.137l-1.129 3.008c1.694 1.317 3.199 2.82 4.515 4.701l2.822-1.316c.377-.188.753-.188 1.13-.188 1.128 0 2.257.752 2.821 2.068l3.01 7.522z" fill="#F5F5F5" fill-rule="nonzero"/><circle fill="#FFF" cx="32.5" cy="30.5" r="13.5"/></g><g transform="translate(63 2)"><path d="M90.051 29.531c1.223 2.131.611 4.871-1.529 6.546l-5.502 3.805c.458 2.436.764 5.024.764 7.611 0 2.588-.306 5.176-.764 7.611l5.655 3.654c1.987 1.37 2.599 4.262 1.376 6.393L83.325 76.72c-.917 1.522-2.598 2.436-4.28 2.436a4.723 4.723 0 0 1-1.987-.457l-6.114-2.74c-3.822 3.349-8.407 5.937-13.299 7.611l-.611 6.698c-.306 2.435-2.293 4.414-4.892 4.414H38.691c-2.599 0-4.739-1.826-4.891-4.414l-.612-6.698c-4.891-1.674-9.477-4.262-13.298-7.611l-6.115 2.892a4.246 4.246 0 0 1-1.987.457c-1.681 0-3.363-.914-4.28-2.436L.782 65.303c-1.375-2.13-.764-4.87 1.376-6.393l5.35-3.958c-.458-2.435-.764-5.023-.764-7.61 0-2.589.306-5.176.764-7.612l-5.503-3.806C.018 34.554-.593 31.662.63 29.531l6.725-11.569c.917-1.522 2.599-2.435 4.28-2.435.765 0 1.376 0 2.14.304l6.115 2.892c3.821-3.349 8.407-5.936 13.298-7.61l.612-6.699C34.105 1.98 36.092 0 38.69 0h13.451c2.599 0 4.739 1.827 4.892 4.414l.611 6.698c4.892 1.675 9.477 4.262 13.299 7.611l6.114-2.74a4.246 4.246 0 0 1 1.987-.456c1.682 0 3.363.913 4.28 2.435l6.726 11.57z" stroke-width="3" fill="#F5F5F5" fill-rule="nonzero"/><ellipse stroke-width="4" fill="#FFF" cx="45" cy="47" rx="19" ry="19"/></g></g></svg>
